style-guide/assets/wds-icons-numbered-list.svg

<svg xmlns="http://www.w3.org/2000/svg" xmlns:xlink="http://www.w3.org/1999/xlink" width="24" height="24" viewBox="0 0 24 24">
  <defs>
    <path id="numbered-list-a" d="M2.70725,5.707 L3.00025,5.414 L3.00025,10 C3.00025,10.553 3.44725,11 4.00025,11 C4.55325,11 5.00025,10.553 5.00025,10 L5.00025,3 C5.00025,2.596 4.75725,2.23 4.38325,2.076 C4.00825,1.922 3.57925,2.006 3.29325,2.293 L1.29325,4.293 C0.90225,4.684 0.90225,5.316 1.29325,5.707 C1.68425,6.098 2.31625,6.098 2.70725,5.707 M12.00025,4 L22.00025,4 C22.55325,4 23.00025,3.553 23.00025,3 C23.00025,2.447 22.55325,2 22.00025,2 L12.00025,2 C11.44725,2 11.00025,2.447 11.00025,3 C11.00025,3.553 11.44725,4 12.00025,4 M7.00025,16 C7.00025,14.346 5.65425,13 4.00025,13 C3.18925,13 2.43525,13.316 1.87425,13.892 C1.48825,14.287 1.49625,14.92 1.89225,15.306 C2.28725,15.691 2.92225,15.684 3.30625,15.288 C3.48725,15.102 3.73325,15 4.00025,15 C4.55225,15 5.00025,15.449 5.00025,16 C5.00025,16.5 4.15025,17.138 3.40025,17.7 C2.27525,18.544 1.00025,19.5 1.00025,21 C1.00025,21.553 1.44725,22 2.00025,22 L6.00025,22 C6.55325,22 7.00025,21.553 7.00025,21 C7.00025,20.447 6.55325,20 6.00025,20 L3.71025,20 C3.98125,19.764 4.29925,19.525 4.60025,19.3 C5.72525,18.456 7.00025,17.5 7.00025,16 M22.00025,20 L12.00025,20 C11.44725,20 11.00025,20.447 11.00025,21 C11.00025,21.553 11.44725,22 12.00025,22 L22.00025,22 C22.55325,22 23.00025,21.553 23.00025,21 C23.00025,20.447 22.55325,20 22.00025,20 M22.00025,11 L12.00025,11 C11.44725,11 11.00025,11.447 11.00025,12 C11.00025,12.553 11.44725,13 12.00025,13 L22.00025,13 C22.55325,13 23.00025,12.553 23.00025,12 C23.00025,11.447 22.55325,11 22.00025,11"/>
  </defs>
  <use fill-rule="evenodd" xlink:href="#numbered-list-a"/>
</svg>

<svg xmlns="http://www.w3.org/2000/svg" xmlns:xlink="http://www.w3.org/1999/xlink" viewBox="0 0 24 24">
  <defs>
    <path id="numbered-list-a" d="M2.707 5.707L3 5.414V10a1 1 0 1 0 2 0V3a.999.999 0 0 0-1.707-.707l-2 2a.999.999 0 1 0 1.414 1.414M12 4h10a1 1 0 1 0 0-2H12a1 1 0 1 0 0 2M7 16c0-1.654-1.346-3-3-3a2.94 2.94 0 0 0-2.126.892.999.999 0 1 0 1.432 1.396A.957.957 0 0 1 4 15c.552 0 1 .449 1 1 0 .5-.85 1.138-1.6 1.7C2.275 18.544 1 19.5 1 21a1 1 0 0 0 1 1h4a1 1 0 1 0 0-2H3.71c.271-.236.59-.475.89-.7C5.725 18.456 7 17.5 7 16m15 4H12a1 1 0 1 0 0 2h10a1 1 0 1 0 0-2m0-9H12a1 1 0 1 0 0 2h10a1 1 0 1 0 0-2"/>
  </defs>
  <use fill-rule="evenodd" xlink:href="#numbered-list-a"/>
</svg>
